X:116
T: DREIMAL UM DAS KAESTCHEN
N: K2166
O: Europa, Mitteleuropa, Deutschland, Oberdiebach am Rhein
R: Kinder - Lied, Reigen, Tanz - Spiel
M: 2/4
L: 1/8
K: G
 | ddee | d2B
G | dddd | g2z
G | ddee | d2d2
d2d2 | g2z
G | ddAe | ddB
G | dddG | d2d
G | dddG | ddd
G | dded | d2d2

